communes/1510.svg

<?xml version="1.0" encoding="UTF-8" standalone="no"?>
<svg
   xmlns:i="http://ns.adobe.com/AdobeIllustrator/10.0/"
   xmlns:dc="http://purl.org/dc/elements/1.1/"
   xmlns:cc="http://creativecommons.org/ns#"
   xmlns:rdf="http://www.w3.org/1999/02/22-rdf-syntax-ns#"
   xmlns:svg="http://www.w3.org/2000/svg"
   xmlns="http://www.w3.org/2000/svg"
   xmlns:xlink="http://www.w3.org/1999/xlink"
   xmlns:sodipodi="http://sodipodi.sourceforge.net/DTD/sodipodi-0.dtd"
   xmlns:inkscape="http://www.inkscape.org/namespaces/inkscape"
   height="763"
   width="603"
   version="1.0"
   id="svg20"
   sodipodi:version="0.32"
   inkscape:version="0.44"
   sodipodi:docname="1510.svg">
  <metadata
     id="metadata31">
    <rdf:RDF>
      <cc:Work
         rdf:about="">
        <dc:format>image/svg+xml</dc:format>
        <dc:type
           rdf:resource="http://purl.org/dc/dcmitype/StillImage" />
        <dc:date>07-AUG-2006</dc:date>
        <dc:creator>
          <cc:Agent>
            <dc:title>Jérôme BLUM (wagner51)</dc:title>
          </cc:Agent>
        </dc:creator>
        <cc:license
           rdf:resource="http://creativecommons.org/licenses/GPL/2.0/" />
        <dc:coverage />
        <dc:description>Gabarit pour le Projet:Blasons de WIkipédia</dc:description>
        <dc:subject>
          <rdf:Bag>
            <rdf:li>blason suisse modèle gabarit projet blasons</rdf:li>
          </rdf:Bag>
        </dc:subject>
        <dc:language>fr</dc:language>
        <dc:title>Gabrit d'un blason suisse</dc:title>
      </cc:Work>
      <cc:License
         rdf:about="http://creativecommons.org/licenses/GPL/2.0/">
        <cc:permits
           rdf:resource="http://web.resource.org/cc/Reproduction" />
        <cc:permits
           rdf:resource="http://web.resource.org/cc/Distribution" />
        <cc:requires
           rdf:resource="http://web.resource.org/cc/Notice" />
        <cc:permits
           rdf:resource="http://web.resource.org/cc/DerivativeWorks" />
        <cc:requires
           rdf:resource="http://web.resource.org/cc/ShareAlike" />
        <cc:requires
           rdf:resource="http://web.resource.org/cc/SourceCode" />
      </cc:License>
    </rdf:RDF>
  </metadata>
  <defs
     id="defs29">
    <linearGradient
       id="linearGradient2893">
      <stop
         style="stop-color:#ffffff;stop-opacity:0.3137255;"
         offset="0"
         id="stop2895" />
      <stop
         id="stop2897"
         offset="0.19"
         style="stop-color:#ffffff;stop-opacity:0.25098041;" />
      <stop
         style="stop-color:#6b6b6b;stop-opacity:0.1254902;"
         offset="0.60000002"
         id="stop2901" />
      <stop
         style="stop-color:#000000;stop-opacity:0.1254902;"
         offset="1"
         id="stop2899" />
    </linearGradient>
    <linearGradient
       id="linearGradient2955">
      <stop
         style="stop-color:white;stop-opacity:0;"
         offset="0"
         id="stop2965" />
      <stop
         style="stop-color:black;stop-opacity:0.64583331;"
         offset="1"
         id="stop2959" />
    </linearGradient>
    <radialGradient
       inkscape:collect="always"
       xlink:href="#linearGradient2893"
       id="radialGradient3236"
       gradientUnits="userSpaceOnUse"
       gradientTransform="matrix(1.215027,1.531577e-24,1.464684e-23,1.266667,-839.1924,-490.4894)"
       cx="858.04236"
       cy="579.93323"
       fx="858.04236"
       fy="579.93323"
       r="300" />
    <foreignObject
       requiredExtensions="http://ns.adobe.com/AdobeIllustrator/10.0/"
       x="0"
       y="0"
       width="1"
       height="1"
       id="foreignObject1956" />
    <foreignObject
       requiredExtensions="http://ns.adobe.com/AdobeIllustrator/10.0/"
       x="0"
       y="0"
       width="1"
       height="1"
       id="foreignObject3732" />
  </defs>
  <sodipodi:namedview
     inkscape:window-height="691"
     inkscape:window-width="939"
     inkscape:pageshadow="2"
     inkscape:pageopacity="0.0"
     guidetolerance="10.0"
     gridtolerance="10.0"
     objecttolerance="10.0"
     borderopacity="1.0"
     bordercolor="#666666"
     pagecolor="#ffffff"
     id="base"
     inkscape:zoom="0.51076062"
     inkscape:cx="386.36319"
     inkscape:cy="343.95406"
     inkscape:window-x="20"
     inkscape:window-y="42"
     inkscape:current-layer="layer2"
     showgrid="false"
     showguides="true"
     inkscape:guide-bbox="true"
     inkscape:document-rotation="0" />
  <desc
     id="desc22">Coat of Arms of Canton of Freiburg (Fribourg)</desc>
  <g
     inkscape:groupmode="layer"
     id="layer1"
     inkscape:label="Fond écu"
     style="opacity:1"
     sodipodi:insensitive="true">
    <path
       id="path1899"
       d="M 1.5,1.49998 L 1.5,460.3679 C 1.5,626.6785 135.81456,761.5 301.49999,761.5 C 467.18543,761.5 601.5,626.6785 601.5,460.3679 L 601.5,1.49998 L 1.5,1.49998 z "
       style="fill:#e20909;fill-opacity:1;stroke:none" />
  </g>
  <g
     inkscape:groupmode="layer"
     id="layer2"
     inkscape:label="Meubles"
     style="opacity:1;display:inline"
     sodipodi:insensitive="true">
    <polygon
       style="fill:white;stroke:black;stroke-width:2.75;stroke-linecap:round;stroke-linejoin:round;stroke-miterlimit:4;stroke-dasharray:none"
       i:knockout="Off"
       points="830.34,199.866 830.34,1.375 796.986,1.375 796.986,33.736 763.652,33.736 763.652,1.375 730.319,1.375 730.319,33.736 696.986,33.736 696.986,1.375 663.653,1.375 663.653,33.736 630.321,33.736 630.321,1.375 596.988,1.375 596.988,199.866 578.145,315.755 578.145,394.316 849.184,394.316 849.184,315.755 830.34,199.866 "
       id="polygon1961"
       transform="matrix(0.999801,0,0,1.039724,-412.0125,106.5739)" />
    <path
       style="fill:white;stroke:black;stroke-width:2.75;stroke-linecap:round;stroke-linejoin:round;stroke-miterlimit:4;stroke-dasharray:none"
       i:knockout="Off"
       d="M 248.0598,214.3666 C 239.6408,214.3666 232.8158,221.1916 232.8158,229.6106 L 232.8158,260.5606 L 263.3028,260.5606 L 263.3028,229.6106 C 263.3038,221.1906 256.4788,214.3666 248.0598,214.3666 z M 354.9608,214.3666 C 346.5418,214.3666 339.7168,221.1916 339.7168,229.6106 L 339.7168,260.5606 L 370.2038,260.5606 L 370.2038,229.6106 C 370.2038,221.1906 363.3798,214.3666 354.9608,214.3666 z "
       id="path1963" />
    <path
       style="fill:#fcef3c;stroke:black;stroke-width:2.75;stroke-linecap:round;stroke-linejoin:round;stroke-miterlimit:4;stroke-dasharray:none"
       i:knockout="Off"
       d="M 45.082745,407.41412 L 38.563387,407.41412 C 35.563396,407.41412 33.13059,409.64976 33.13059,412.40884 L 33.13059,511.30436 C 33.13059,514.06344 35.563396,516.29908 38.563387,516.29908 L 45.082745,516.29908 C 48.082736,516.29908 50.515542,514.06344 50.515542,511.30436 L 50.515542,412.40884 C 50.515542,409.65076 48.082736,407.41412 45.082745,407.41412 z M 92.298104,407.41412 L 85.778746,407.41412 C 82.778755,407.41412 80.345949,409.64976 80.345949,412.40884 L 80.345949,511.30436 C 80.345949,514.06344 82.778755,516.29908 85.778746,516.29908 L 92.298104,516.29908 C 95.298095,516.29908 97.730901,514.06344 97.730901,511.30436 L 97.730901,412.40884 C 97.730901,409.65076 95.298095,407.41412 92.298104,407.41412 z M 139.51455,407.41412 L 132.99519,407.41412 C 129.9952,407.41412 127.56239,409.64976 127.56239,412.40884 L 127.56239,511.30436 C 127.56239,514.06344 129.9952,516.29908 132.99519,516.29908 L 139.51455,516.29908 C 142.51454,516.29908 144.94735,514.06344 144.94735,511.30436 L 144.94735,412.40884 C 144.94735,409.65076 142.51454,407.41412 139.51455,407.41412 z M 186.72991,407.41412 L 180.21055,407.41412 C 177.21056,407.41412 174.77775,409.64976 174.77775,412.40884 L 174.77775,511.30436 C 174.77775,514.06344 177.21056,516.29908 180.21055,516.29908 L 186.72991,516.29908 C 189.7299,516.29908 192.16271,514.06344 192.16271,511.30436 L 192.16271,412.40884 C 192.16271,409.65076 189.73099,407.41412 186.72991,407.41412 z M 233.94635,407.41412 L 227.427,407.41412 C 224.42701,407.41412 221.9942,409.64976 221.9942,412.40884 L 221.9942,511.30436 C 221.9942,514.06344 224.42701,516.29908 227.427,516.29908 L 233.94635,516.29908 C 236.94634,516.29908 239.37915,514.06344 239.37915,511.30436 L 239.37915,412.40884 C 239.37915,409.65076 236.94634,407.41412 233.94635,407.41412 z M 281.1628,407.41412 L 274.64344,407.41412 C 271.64345,407.41412 269.21064,409.64976 269.21064,412.40884 L 269.21064,511.30436 C 269.21064,514.06344 271.64345,516.29908 274.64344,516.29908 L 281.1628,516.29908 C 284.16279,516.29908 286.5956,514.06344 286.5956,511.30436 L 286.5956,412.40884 C 286.5956,409.65076 284.16279,407.41412 281.1628,407.41412 z M 564.45821,407.41412 L 557.93886,407.41412 C 554.93778,407.41412 552.50606,409.64976 552.50606,412.40884 L 552.50606,511.30436 C 552.50606,514.06344 554.93778,516.29908 557.93886,516.29908 L 564.45821,516.29908 C 567.4582,516.29908 569.89101,514.06344 569.89101,511.30436 L 569.89101,412.40884 C 569.89101,409.65076 567.45712,407.41412 564.45821,407.41412 z M 517.24177,407.41412 L 510.72241,407.41412 C 507.72133,407.41412 505.28961,409.64976 505.28961,412.40884 L 505.28961,511.30436 C 505.28961,514.06344 507.72133,516.29908 510.72241,516.29908 L 517.24177,516.29908 C 520.24176,516.29908 522.67456,514.06344 522.67456,511.30436 L 522.67456,412.40884 C 522.67456,409.65076 520.24176,407.41412 517.24177,407.41412 z M 470.02532,407.41412 L 463.50596,407.41412 C 460.50489,407.41412 458.07317,409.64976 458.07317,412.40884 L 458.07317,511.30436 C 458.07317,514.06344 460.50489,516.29908 463.50596,516.29908 L 470.02532,516.29908 C 473.02531,516.29908 475.45812,514.06344 475.45812,511.30436 L 475.45812,412.40884 C 475.45812,409.65076 473.02531,407.41412 470.02532,407.41412 z M 422.80996,407.41412 L 416.29061,407.41412 C 413.28953,407.41412 410.85781,409.64976 410.85781,412.40884 L 410.85781,511.30436 C 410.85781,514.06344 413.28953,516.29908 416.29061,516.29908 L 422.80996,516.29908 C 425.80995,516.29908 428.24276,514.06344 428.24276,511.30436 L 428.24276,412.40884 C 428.24276,409.65076 425.80995,407.41412 422.80996,407.41412 z M 375.59352,407.41412 L 369.07416,407.41412 C 366.07308,407.41412 363.64136,409.64976 363.64136,412.40884 L 363.64136,511.30436 C 363.64136,514.06344 366.07308,516.29908 369.07416,516.29908 L 375.59352,516.29908 C 378.59351,516.29908 381.02631,514.06344 381.02631,511.30436 L 381.02631,412.40884 C 381.02631,409.65076 378.59351,407.41412 375.59352,407.41412 z M 328.37816,407.41412 L 321.8588,407.41412 C 318.85772,407.41412 316.426,409.64976 316.426,412.40884 L 316.426,511.30436 C 316.426,514.06344 318.85772,516.29908 321.8588,516.29908 L 328.37816,516.29908 C 331.37815,516.29908 333.81096,514.06344 333.81096,511.30436 L 333.81096,412.40884 C 333.81096,409.65076 331.37815,407.41412 328.37816,407.41412 z "
       id="path1965" />
    <path
       style="fill:#2b5df2;stroke:black;stroke-width:2.70000005;stroke-linecap:round;stroke-linejoin:round;stroke-miterlimit:4;stroke-dasharray:none;stroke-opacity:1"
       d="M 64.09375,478.59375 C 37.486745,478.59375 31.656749,493.71875 4.71875,493.71875 C 4.2438387,493.71875 3.8057687,493.69674 3.34375,493.6875 C 19.86536,644.31546 147.03638,761.5 301.5,761.5 C 455.96362,761.5 583.13464,644.31545 599.65625,493.6875 C 599.19994,493.69651 598.75013,493.71875 598.28125,493.71875 C 571.34225,493.71875 565.5455,478.59374 538.9375,478.59375 C 512.3295,478.59375 506.5005,493.71875 479.5625,493.71875 C 452.6235,493.71875 446.82475,478.59374 420.21875,478.59375 C 393.61075,478.59375 387.78175,493.71875 360.84375,493.71875 C 333.90675,493.71875 328.107,478.59374 301.5,478.59375 C 274.893,478.59375 269.09424,493.71875 242.15625,493.71875 C 215.21925,493.71875 209.38924,478.59374 182.78125,478.59375 C 156.17425,478.59375 150.3745,493.71875 123.4375,493.71875 C 96.500486,493.71875 90.70175,478.59374 64.09375,478.59375 z "
       id="path3743" />
  </g>
  <g
     inkscape:groupmode="layer"
     id="layer3"
     inkscape:label="Reflet final"
     style="display:inline"
     sodipodi:insensitive="true">
    <path
       style="fill:url(#radialGradient3236);fill-opacity:1"
       d="M 1.5,1.5 L 1.5,460.3679 C 1.5,626.67854 135.81454,761.5 301.49993,761.5 C 467.1854,761.5 601.5,626.67854 601.5,460.3679 L 601.5,1.5 L 1.5,1.5 z "
       id="path2346" />
  </g>
  <g
     inkscape:groupmode="layer"
     id="layer4"
     inkscape:label="Contour final"
     style="display:inline"
     sodipodi:insensitive="true">
    <path
       style="fill:none;fill-opacity:1;stroke:black;stroke-width:3;stroke-miterlimit:4;stroke-dasharray:none;stroke-opacity:1"
       d="M 1.5,1.5 L 1.5,460.36794 C 1.5,626.67854 135.81454,761.5 301.49993,761.5 C 467.1854,761.5 601.5,626.67854 601.5,460.36794 L 601.5,1.5 L 1.5,1.5 z "
       id="path3239" />
  </g>
</svg>

<?xml version="1.0" encoding="UTF-8"?>
<svg version="1.0" viewBox="0 0 603 763" xmlns="http://www.w3.org/2000/svg" xmlns:cc="http://creativecommons.org/ns#" xmlns:dc="http://purl.org/dc/elements/1.1/" xmlns:rdf="http://www.w3.org/1999/02/22-rdf-syntax-ns#" xmlns:xlink="http://www.w3.org/1999/xlink">
<metadata>
<rdf:RDF>
<cc:Work rdf:about="">
<dc:format>image/svg+xml</dc:format>
<dc:type rdf:resource="http://purl.org/dc/dcmitype/StillImage"/>
<dc:date>07-AUG-2006</dc:date>
<dc:creator>
<cc:Agent>
<dc:title>Jérôme BLUM (wagner51)</dc:title>
</cc:Agent>
</dc:creator>
<cc:license rdf:resource="http://creativecommons.org/licenses/GPL/2.0/"/>
<dc:coverage/>
<dc:description>Gabarit pour le Projet:Blasons de WIkipédia</dc:description>
<dc:subject>
<rdf:Bag>
<rdf:li>blason suisse modèle gabarit projet blasons</rdf:li>
</rdf:Bag>
</dc:subject>
<dc:language>fr</dc:language>
<dc:title>Gabrit d'un blason suisse</dc:title>
</cc:Work>
<cc:License rdf:about="http://creativecommons.org/licenses/GPL/2.0/">
<cc:permits rdf:resource="http://web.resource.org/cc/Reproduction"/>
<cc:permits rdf:resource="http://web.resource.org/cc/Distribution"/>
<cc:requires rdf:resource="http://web.resource.org/cc/Notice"/>
<cc:permits rdf:resource="http://web.resource.org/cc/DerivativeWorks"/>
<cc:requires rdf:resource="http://web.resource.org/cc/ShareAlike"/>
<cc:requires rdf:resource="http://web.resource.org/cc/SourceCode"/>
</cc:License>
</rdf:RDF>
</metadata>
<defs>
<radialGradient id="a" cx="858.04" cy="579.93" r="300" gradientTransform="matrix(1.215 1.5316e-24 1.4647e-23 1.2667 -839.19 -490.49)" gradientUnits="userSpaceOnUse">
<stop stop-color="#fff" stop-opacity=".31373" offset="0"/>
<stop stop-color="#fff" stop-opacity=".25098" offset=".19"/>
<stop stop-color="#6b6b6b" stop-opacity=".12549" offset=".6"/>
<stop stop-opacity=".12549" offset="1"/>
</radialGradient>
</defs>
<desc>Coat of Arms of Canton of Freiburg (Fribourg)</desc>
<g>
<path d="m1.5 1.5v458.87c0 166.31 134.31 301.13 300 301.13 165.69 0 300-134.82 300-301.13v-458.87h-600z" fill="#e20909"/>
</g>
<g stroke="#000" stroke-linecap="round" stroke-linejoin="round">
<polygon transform="matrix(.9998 0 0 1.0397 -412.01 106.57)" points="830.34 199.87 830.34 1.375 796.99 1.375 796.99 33.736 763.65 33.736 763.65 1.375 730.32 1.375 730.32 33.736 696.99 33.736 696.99 1.375 663.65 1.375 663.65 33.736 630.32 33.736 630.32 1.375 596.99 1.375 596.99 199.87 578.14 315.76 578.14 394.32 849.18 394.32 849.18 315.76" fill="#fff" stroke-width="2.75"/>
<path d="m248.06 214.37c-8.419 0-15.244 6.825-15.244 15.244v30.95h30.487v-30.95c1e-3 -8.42-6.824-15.244-15.243-15.244zm106.9 0c-8.419 0-15.244 6.825-15.244 15.244v30.95h30.487v-30.95c0-8.42-6.824-15.244-15.243-15.244z" fill="#fff" stroke-width="2.75"/>
<path d="m45.083 407.41h-6.5194c-3 0-5.4328 2.2356-5.4328 4.9947v98.896c0 2.7591 2.4328 4.9947 5.4328 4.9947h6.5194c3 0 5.4328-2.2356 5.4328-4.9947v-98.896c0-2.7581-2.4328-4.9947-5.4328-4.9947zm47.215 0h-6.5194c-3 0-5.4328 2.2356-5.4328 4.9947v98.896c0 2.7591 2.4328 4.9947 5.4328 4.9947h6.5194c3 0 5.4328-2.2356 5.4328-4.9947v-98.896c0-2.7581-2.4328-4.9947-5.4328-4.9947zm47.216 0h-6.5194c-3 0-5.4328 2.2356-5.4328 4.9947v98.896c0 2.7591 2.4328 4.9947 5.4328 4.9947h6.5194c3 0 5.4328-2.2356 5.4328-4.9947v-98.896c0-2.7581-2.4328-4.9947-5.4328-4.9947zm47.215 0h-6.5194c-3 0-5.4328 2.2356-5.4328 4.9947v98.896c0 2.7591 2.4328 4.9947 5.4328 4.9947h6.5194c3 0 5.4328-2.2356 5.4328-4.9947v-98.896c0-2.7581-2.4317-4.9947-5.4328-4.9947zm47.216 0h-6.5194c-3 0-5.4328 2.2356-5.4328 4.9947v98.896c0 2.7591 2.4328 4.9947 5.4328 4.9947h6.5194c3 0 5.4328-2.2356 5.4328-4.9947v-98.896c0-2.7581-2.4328-4.9947-5.4328-4.9947zm47.216 0h-6.5194c-3 0-5.4328 2.2356-5.4328 4.9947v98.896c0 2.7591 2.4328 4.9947 5.4328 4.9947h6.5194c3 0 5.4328-2.2356 5.4328-4.9947v-98.896c0-2.7581-2.4328-4.9947-5.4328-4.9947zm283.3 0h-6.5194c-3.0011 0-5.4328 2.2356-5.4328 4.9947v98.896c0 2.7591 2.4317 4.9947 5.4328 4.9947h6.5194c3 0 5.4328-2.2356 5.4328-4.9947v-98.896c0-2.7581-2.4339-4.9947-5.4328-4.9947zm-47.216 0h-6.5194c-3.0011 0-5.4328 2.2356-5.4328 4.9947v98.896c0 2.7591 2.4317 4.9947 5.4328 4.9947h6.5194c3 0 5.4328-2.2356 5.4328-4.9947v-98.896c0-2.7581-2.4328-4.9947-5.4328-4.9947zm-47.216 0h-6.5194c-3.0011 0-5.4328 2.2356-5.4328 4.9947v98.896c0 2.7591 2.4317 4.9947 5.4328 4.9947h6.5194c3 0 5.4328-2.2356 5.4328-4.9947v-98.896c0-2.7581-2.4328-4.9947-5.4328-4.9947zm-47.215 0h-6.5194c-3.0011 0-5.4328 2.2356-5.4328 4.9947v98.896c0 2.7591 2.4317 4.9947 5.4328 4.9947h6.5194c3 0 5.4328-2.2356 5.4328-4.9947v-98.896c0-2.7581-2.4328-4.9947-5.4328-4.9947zm-47.216 0h-6.5194c-3.0011 0-5.4328 2.2356-5.4328 4.9947v98.896c0 2.7591 2.4317 4.9947 5.4328 4.9947h6.5194c3 0 5.4328-2.2356 5.4328-4.9947v-98.896c0-2.7581-2.4328-4.9947-5.4328-4.9947zm-47.215 0h-6.5194c-3.0011 0-5.4328 2.2356-5.4328 4.9947v98.896c0 2.7591 2.4317 4.9947 5.4328 4.9947h6.5194c3 0 5.4328-2.2356 5.4328-4.9947v-98.896c0-2.7581-2.4328-4.9947-5.4328-4.9947z" fill="#fcef3c" stroke-width="2.75"/>
<path d="m64.094 478.59c-26.607 0-32.437 15.125-59.375 15.125-0.47491 0-0.91298-0.02201-1.375-0.03125 16.522 150.63 143.69 267.81 298.16 267.81s281.63-117.18 298.16-267.81c-0.45631 0.00901-0.90612 0.03125-1.375 0.03125-26.939 0-32.736-15.125-59.344-15.125-26.608 0-32.437 15.125-59.375 15.125-26.939 0-32.738-15.125-59.344-15.125-26.608 0-32.437 15.125-59.375 15.125-26.937 0-32.737-15.125-59.344-15.125-26.607 0-32.406 15.125-59.344 15.125-26.937 0-32.767-15.125-59.375-15.125-26.607 0-32.407 15.125-59.344 15.125-26.937 0-32.736-15.125-59.344-15.125z" fill="#2b5df2" stroke-width="2.7"/>
</g>
<g>
<path d="m1.5 1.5v458.87c0 166.31 134.31 301.13 300 301.13 165.69 0 300-134.82 300-301.13v-458.87h-600z" fill="url(#a)"/>
<path d="m1.5 1.5v458.87c0 166.31 134.31 301.13 300 301.13 165.69 0 300-134.82 300-301.13v-458.87h-600z" fill="none" stroke="#000" stroke-width="3"/>
</g>
</svg>
